core/assets/icons/infinity.svg

<svg width="24" height="24" viewBox="0 0 24 24" xmlns="http://www.w3.org/2000/svg"><g id="infinity"><path id="Vector" d="M22 12.0078C22 13.4103 21.5357 14.5929 20.607 15.5557C19.6783 16.5186 18.5008 17 17.0746 17C15.0293 17 13.3212 15.8645 11.9502 13.5934C10.5683 15.8121 8.91542 16.9215 6.99171 16.9215C5.48812 16.9215 4.2775 16.461 3.35987 15.54C2.45329 14.619 2 13.4207 2 11.9451C2 10.5113 2.46434 9.32862 3.39303 8.39717C4.33278 7.46572 5.53234 7 6.99171 7C8.98176 7 10.6457 8.12507 11.9834 10.3752C13.3543 8.16693 15.0514 7.06279 17.0746 7.06279C18.534 7.06279 19.717 7.51805 20.6235 8.42857C21.5412 9.33909 22 10.5322 22 12.0078ZM7.12438 14.8336C7.8209 14.8336 8.46766 14.6086 9.06468 14.1586C9.66169 13.6981 10.2477 12.9602 10.8226 11.9451C10.2808 10.9613 9.71144 10.2339 9.11443 9.76295C8.52847 9.29199 7.85406 9.05651 7.09121 9.05651C6.23991 9.05651 5.54892 9.33386 5.01824 9.88854C4.49862 10.4328 4.23881 11.1287 4.23881 11.9765C4.23881 12.8242 4.49862 13.5149 5.01824 14.0487C5.53787 14.572 6.23991 14.8336 7.12438 14.8336ZM16.8756 9.11931C16.1791 9.11931 15.5323 9.35479 14.9353 9.82575C14.3494 10.2862 13.7634 11.0136 13.1774 12.0078C13.7192 12.9916 14.2886 13.719 14.8856 14.19C15.4826 14.6609 16.157 14.8964 16.9088 14.8964C17.749 14.8964 18.4345 14.6243 18.9652 14.0801C19.4959 13.5358 19.7612 12.8451 19.7612 12.0078C19.7612 11.1915 19.4959 10.506 18.9652 9.95133C18.4456 9.39665 17.749 9.11931 16.8756 9.11931Z"/></g></svg>

<svg xmlns="http://www.w3.org/2000/svg" width="24" height="24" fill="none"><path fill="#191C22" d="M22 12.008c0 1.402-.464 2.585-1.393 3.548-.929.963-2.106 1.444-3.532 1.444-2.046 0-3.754-1.136-5.125-3.407-1.382 2.22-3.035 3.329-4.958 3.329-1.504 0-2.715-.461-3.632-1.382C2.453 14.619 2 13.42 2 11.945c0-1.434.464-2.616 1.393-3.548C4.333 7.466 5.533 7 6.992 7c1.99 0 3.654 1.125 4.991 3.375 1.371-2.208 3.068-3.312 5.092-3.312 1.459 0 2.642.455 3.549 1.366.917.91 1.376 2.103 1.376 3.579ZM7.124 14.834c.697 0 1.344-.225 1.94-.675.598-.46 1.184-1.199 1.759-2.214-.542-.984-1.112-1.711-1.709-2.182a3.138 3.138 0 0 0-2.023-.706c-.851 0-1.542.277-2.073.832-.52.544-.78 1.24-.78 2.088 0 .847.26 1.538.78 2.072.52.523 1.222.785 2.106.785Zm9.752-5.715c-.697 0-1.344.236-1.94.707-.587.46-1.173 1.188-1.759 2.182.542.984 1.112 1.711 1.709 2.182.597.47 1.271.706 2.023.706.84 0 1.526-.272 2.056-.816.53-.544.796-1.235.796-2.072 0-.816-.265-1.502-.796-2.057-.52-.554-1.216-.832-2.09-.832Z"/></svg>
